public/assets/images/field-c04.svg

<svg width="18" height="18" viewBox="0 0 18 18" fill="none" xmlns="http://www.w3.org/2000/svg">
<path d="M14.0545 5.25794L14.5489 4.82068H13.8889H4.11111H3.45109L3.94548 5.25794L8.83437 9.58193L9 9.72842L9.16563 9.58193L14.0545 5.25794ZM2.75 13.4707V13.7207H3H15H15.25V13.4707V6.84844V6.30406L14.8371 6.65882L9.46093 11.2777C9.32953 11.381 9.16721 11.4372 9 11.4372C8.83279 11.4372 8.67047 11.381 8.53907 11.2777L3.16292 6.65882L2.75 6.30406V6.84844V13.4707ZM2 3.24999H16C16.1989 3.24999 16.3897 3.32901 16.5303 3.46966C16.671 3.61032 16.75 3.80108 16.75 3.99999V14.4707C16.75 14.6696 16.671 14.8603 16.5303 15.001C16.3897 15.1416 16.1989 15.2207 16 15.2207H2C1.80109 15.2207 1.61032 15.1416 1.46967 15.001C1.32902 14.8603 1.25 14.6696 1.25 14.4707V3.99999C1.25 3.80108 1.32902 3.61032 1.46967 3.46966C1.61032 3.32901 1.80109 3.24999 2 3.24999Z" fill="#4F66EE" stroke="white" stroke-width="0.5"/>
</svg>

<svg width="18" height="18" fill="none" xmlns="http://www.w3.org/2000/svg"><path d="M14.055 5.258l.494-.437H3.45l.494.437 4.89 4.324.165.146.166-.146 4.889-4.324zM2.75 13.47v.25h12.5V6.304l-.413.355-5.376 4.619a.746.746 0 01-.922 0l-5.376-4.62-.413-.354v7.167zM2 3.25h14a.75.75 0 01.75.75v10.47a.75.75 0 01-.75.75H2a.75.75 0 01-.75-.75V4A.75.75 0 012 3.25z" fill="#4F66EE" stroke="#fff" stroke-width=".5"/></svg>
